src/images/stitcher.svg

<svg fill="none" height="46" viewBox="0 0 108 46" width="108" xmlns="http://www.w3.org/2000/svg"><path d="m80.91 0h-1.6155v45.5625h1.6155zm-3.3525 5.0625h-1.62v35.4375h1.62zm-5.022 0h-72.5355v35.4375h72.5355zm35.4645 0h-20.286v35.4375h20.286zm-23.652 0h-1.62v35.4375h1.62z" fill="#f1f1f1"/></svg>

<svg width="108" height="46" viewBox="0 0 108 46" fill="none" xmlns="http://www.w3.org/2000/svg">
<path d="M80.91 0H79.2945V45.5625H80.91V0ZM77.5575 5.0625H75.9375V40.5H77.5575V5.0625ZM72.5355 5.0625H0V40.5H72.5355V5.0625ZM108 5.0625H87.714V40.5H108V5.0625ZM84.348 5.0625H82.728V40.5H84.348V5.0625Z" fill="#F1F1F1"/>
</svg>
